X:1
T:Beyond the Smiling and the Weeping
T:Beyond the Smiling and the Weeping
T:Karl Pomeroy Harrington, 1905
T:Horatius Bonar, 1849
T:Public Domain Courtesy of the Cyber Hymnal™
C:Karl Pomeroy Harrington, 1905
Z:Public Domain
Z:Courtesy of the Cyber Hymnal™
%%score ( 1 2 ) ( 3 4 )
L:1/8
Q:1/4=110
M:4/4
K:G
V:1 treble 
V:2 treble 
V:3 bass 
V:4 bass 
V:1
 D2 | D3 ^D E[=EF][_EG][EA] | B4 [Gc]2 [GB]2 | G4 [FA]4 | [GB]6 D2 | D3 ^D E[EF][EG][EA] | %6
w: 1.~Be-|yond the smil- ing and the|weep- ing, I|shall be|soon; Be-|yond the wak- ing and the|
w: 2.~Be-|yond the bloom- ing and the|fad- ing, I|shall be|soon. Be-|yond the shin- ing and the|
w: 3.~Be-|yond the ris- ing and the|sett- ing, I|shall be|soon; Be-|yond the calm- ing and the|
w: 4.~Be-|yond the ga- thering and the|strow- ing I|shall be|soon; Be-|yond the eb- bing and the|
w: 5.~Be-|yond the part- ing and the|meet- ing, I|shall be|soon; Be-|yond the fare- well and the|
w: 6.~Be-|yond the frost- chain and the|fe- ver, I|shall be|soon; Be-|yond the rock- waste and the|
 [^DB]4 [EG]2 [EB]2 | [Fd]3 [Fc] [FB][FA]G[FA] | [GB]4 [DG]2 [CE]2 | [B,D]4 [CA]4 | [B,G]6 z2 || %11
w: sleep- ing, Be-|yond the sow- ing and the|reap- ing, I|shall be|soon.|
w: shad- ing, Be-|yond the hop- ing and the|dread- ing, I|shall be|soon.|
w: fret- ting, Be-|yond re- mem- bering and for-|get- ting, I|shall be|soon.|
w: flow- ing, Be-|yond the com- ing and the|go- ing, I|shall be|soon.|
w: greet- ing, Be-|yond the puls- e’s fe- ver|beat- ing, I|shall be|soon.|
w: riv- er, Be-|yond the ev- er and the|nev- er, I|shall be|soon.|
"^Refrain" [DG]4 [EG]2 [GA]2 | [GB]6 z2 | [Gd]4 [Gc]4 | [GB]6 z2 | [B,G]4 [CG]2 [CA]2 | %16
w: |||||
w: |||||
w: Love, rest, and|home!|Sweet, sweet|hope!|Lord, tar- ry|
w: |||||
w: |||||
w: |||||
 [CB]4 z2 [CA]2 | [B,G]6 |] %18
w: ||
w: ||
w: not, but|come!|
w: ||
w: ||
w: ||
V:2
 D2 | ^D3 D _E x3 | (D2 G2) x4 | G4 x4 | x6 D2 | ^D3 D E x3 | x8 | x6 G x | x8 | x8 | x8 || x8 | %12
 x8 | x8 | x8 | x8 | x8 | x6 |] %18
V:3
 [G,B,]2 | [G,B,]3 [G,B,] [G,C][G,C][G,C][G,C] | (B,2 D2) [G,E]2 [G,D]2 | [D,B,]4 [D,D]4 | %4
 [G,D]6 [G,B,]2 | [G,B,]3 [G,B,] [G,C][G,C][G,C][G,C] | [F,A,]4 [E,B,]2 [E,G,]2 | %7
 [D,A,]3 [D,E] [D,D][D,C][D,B,][D,D] | [G,D]4 [G,B,]2 [C,G,]2 | [D,G,]4 [D,F,]4 | [G,,G,]6 z2 || %11
 [G,B,]4 [G,C]2 [G,_E]2 | [G,D]6 z2 | [B,=F]4 [CE]4 | [G,D]6 z2 | [E,G,]4 [_E,A,]2 [E,G,]2 | %16
 [D,F,]4 z2 [D,F,]2 | [G,,G,]6 |] %18
V:4
 x2 | x8 | G,4 x4 | x8 | x8 | x8 | x8 | x8 | x8 | x8 | x8 || x8 | x8 | x8 | x8 | x8 | x8 | x6 |] %18

